Adwaita++-Light/panel/16/krb-no-valid-ticket.svg

<svg height="16" width="16" xmlns="http://www.w3.org/2000/svg">
  <path d="m4.5 4c-2.4853 0-4.5 2.0147-4.5 4.5 0 2.485 2.0147 4.5 4.5 4.5 1.9047-.003 3.601-1.204 4.236-3l2.264-.002v-3l-2.264.002c-.635-1.7958-2.3313-2.9973-4.236-3zm10.5 2.9961v2.9959l1 .004v-2.9998h-1zm-10.5.0039c.8284 0 1.5.672 1.5 1.5 0 .829-.6716 1.5-1.5 1.5s-1.5-.671-1.5-1.5c0-.828.6716-1.5 1.5-1.5z" fill="#444"/>
  <path d="m12 6v4l.25 2h1.5l.25-2v-4zm0 7v2h2v-2z" fill="#4285f4"/>
</svg>

<svg xmlns="http://www.w3.org/2000/svg" width="16" height="16" version="1.1">
 <defs>
  <style id="current-color-scheme" type="text/css">
   .ColorScheme-Text { color:#444444; } .ColorScheme-Highlight { color:#4285f4; }
  </style>
 </defs>
 <path style="fill:currentColor" class="ColorScheme-Text" d="M 4.5,4 C 2.0147,4 0,6.0147 0,8.5 0,10.985 2.0147,13 4.5,13 6.4047,12.997 8.101,11.796 8.736,10 L 11,9.998 V 6.998 L 8.736,7 C 8.101,5.2042 6.4047,4.0027 4.5,4 Z M 15,6.9961 V 9.992 L 16,9.996 V 6.9962 H 15 Z M 4.5,7 C 5.3284,7 6,7.672 6,8.5 6,9.329 5.3284,10 4.5,10 3.6716,10 3,9.329 3,8.5 3,7.672 3.6716,7 4.5,7 Z"/>
 <path style="fill:currentColor" class="ColorScheme-Highlight" d="M 12,6 V 10 L 12.25,12 H 13.75 L 14,10 V 6 Z M 12,13 V 15 H 14 V 13 Z"/>
</svg>
